packages/ffe-icons/icons/filled/md/dashboard.svg

<svg xmlns="http://www.w3.org/2000/svg" height="24" viewBox="0 -960 960 960" width="24"><path d="M566.108-600q-15.415 0-25.761-10.346t-10.346-25.998v-147.311q0-15.651 10.427-25.997 10.428-10.347 25.843-10.347h217.621q15.414 0 25.76 10.347 10.347 10.346 10.347 25.997v147.311q0 15.652-10.428 25.998Q799.143-600 783.728-600h-217.62Zm-390 139.999q-15.414 0-25.76-10.351-10.347-10.35-10.347-25.65v-288.004q0-15.3 10.428-25.646 10.428-10.347 25.843-10.347h217.62q15.415 0 25.761 10.351 10.346 10.35 10.346 25.65v288.004q0 15.3-10.427 25.646-10.428 10.347-25.843 10.347H176.108Zm390 320q-15.415 0-25.761-10.351-10.346-10.35-10.346-25.65v-288.004q0-15.3 10.427-25.646 10.428-10.347 25.843-10.347h217.621q15.414 0 25.76 10.351 10.347 10.35 10.347 25.65v288.004q0 15.3-10.428 25.646-10.428 10.347-25.843 10.347h-217.62Zm-390 0q-15.414 0-25.76-10.347-10.347-10.346-10.347-25.997v-147.311q0-15.652 10.428-25.998Q160.857-360 176.272-360h217.62q15.415 0 25.761 10.346t10.346 25.998v147.311q0 15.651-10.427 25.997-10.428 10.347-25.843 10.347H176.108Z"/></svg>

<svg xmlns="http://www.w3.org/2000/svg" height="24" viewBox="0 -960 960 960" width="24"><path d="M566.11-600q-15.42 0-25.76-10.35Q530-620.69 530-636.34v-147.31q0-15.66 10.43-26Q550.86-820 566.27-820h217.62q15.42 0 25.76 10.35 10.35 10.34 10.35 26v147.31q0 15.65-10.43 25.99Q799.14-600 783.73-600H566.11Zm-390 140q-15.42 0-25.76-10.35Q140-480.7 140-496v-288.01q0-15.3 10.43-25.64Q160.86-820 176.27-820h217.62q15.42 0 25.76 10.35Q430-799.3 430-784v288.01q0 15.3-10.43 25.64Q409.14-460 393.73-460H176.11Zm390 320q-15.42 0-25.76-10.35Q530-160.7 530-176v-288.01q0-15.3 10.43-25.64Q550.86-500 566.27-500h217.62q15.42 0 25.76 10.35Q820-479.3 820-464v288.01q0 15.3-10.43 25.64Q799.14-140 783.73-140H566.11Zm-390 0q-15.42 0-25.76-10.35-10.35-10.34-10.35-26v-147.31q0-15.65 10.43-25.99Q160.86-360 176.27-360h217.62q15.42 0 25.76 10.35Q430-339.31 430-323.66v147.31q0 15.66-10.43 26Q409.14-140 393.73-140H176.11Z"/></svg>
